X: 192151
T: Sally Gap (The)
C: Joe Liddy
S: "The Leitrim Fiddler" (Dublin 1981)
Z: BB
L: 1/8
M: 4/4
R: reel
Q: 1/4 = 170
K: Edor
GE (3GED EFGA | B2 GE BEAG | FD D2 DFAG | FDAD BFAF |
GEED EFGA |1 B2 AF GE [B,2D2] | EFGA B2 Be | dbAF GE E2 :|
[2 B2 BA Bdef | gfed edBA | BAGF GE E2 || Beef g2 ga |
bgaf gfed | B2 BA GABA | BedB e2 ef | gfed edBA | BAGF GEFD |
EFGA B2 de | dBAF GE E2 || e2 ed Bdef | g2 fd edBA |
G2 GA BABd | fged Bdef | gfed edBA | GEFD EDB,A, |
B,EFD E2 de | edAF GE E2 ||
%%%%%%%%%%%%%%%%%%%%%%%%%%%%
